build/images/cd-icons.svg

<?xml version="1.0" encoding="utf-8"?>
<!-- Generator: Adobe Illustrator 19.1.0, SVG Export Plug-In . SVG Version: 6.00 Build 0)  -->
<!DOCTYPE svg PUBLIC "-//W3C//DTD SVG 1.1//EN" "http://www.w3.org/Graphics/SVG/1.1/DTD/svg11.dtd">
<svg version="1.1" id="Layer_1" xmlns="http://www.w3.org/2000/svg" xmlns:xlink="http://www.w3.org/1999/xlink" x="0px" y="0px"
	 width="64px" height="16px" viewBox="0 0 64 16" enable-background="new 0 0 64 16" xml:space="preserve">
<g transform="translate(0, 0)">
	<polygon fill="#FFFFFF" points="8,12.6000004 0.3,4.9000001 1.7,3.4000001 8,9.6999998 14.3000002,3.4000001 15.6999998,4.9000001 
			"/>
</g>
<g transform="translate(16, 0)">
	<path fill="#6C7079" d="M15,3H8.3999996L5.6999998,0.3C5.5,0.1,5.3000002,0,5,0H1C0.4,0,0,0.4,0,1v14c0,0.6000004,0.4,1,1,1h14
		c0.6000004,0,1-0.3999996,1-1V4C16,3.4000001,15.6000004,3,15,3z"/>
</g>
<g transform="translate(32, 0)">
	<path fill="#6C7079" d="M15.8000002,7.4000001C15.6000004,7.1999998,15.3000002,7,15,7H4
		C3.5999999,7,3.2,7.1999998,3.0999999,7.5999999l-3,7.0000005C-0.1,15.1999998,0.1,16,1,16h11
		c0.3999996,0,0.8000002-0.1999998,0.8999996-0.6000004l3-7C16.1000004,8.1000004,16,7.6999998,15.8000002,7.4000001z"/>
	<path fill="#6C7079" d="M1.2,6.8000002C1.7,5.6999998,2.8,5,4,5h9V3c0-0.5999999-0.3999996-1-1-1H6.4000001L4.6999998,0.3
		C4.5,0.1,4.3000002,0,4,0H1C0.4,0,0,0.4,0,1v8.6999998L1.2,6.8000002z"/>
</g>
<g transform="translate(48, 0)">
	<path fill="#6C7079" d="M15,0H1C0.4,0,0,0.4,0,1v14c0,0.6000004,0.4,1,1,1h14c0.6000004,0,1-0.3999996,1-1V1
		C16,0.4,15.6000004,0,15,0z M6,4c0.5999999,0,1,0.4000001,1,1S6.5999999,6,6,6S5,5.5999999,5,5S5.4000001,4,6,4z M3,12l2-4l2,2l3-4
		l3,6H3z"/>
</g>
</svg>

<?xml version="1.0" encoding="UTF-8"?>
<svg width="64px" height="16px" viewBox="0 0 64 16" version="1.1" xmlns="http://www.w3.org/2000/svg" xmlns:xlink="http://www.w3.org/1999/xlink">
    <!-- Generator: Sketch 52.1 (67048) - http://www.bohemiancoding.com/sketch -->
    <title>cd-icons</title>
    <desc>Created with Sketch.</desc>
    <g id="Problems" stroke="none" stroke-width="1" fill="none" fill-rule="evenodd">
        <g id="cd-icons">
            <g id="Group" transform="translate(0.000000, 3.000000)" fill="#5E5E5E">
                <polygon id="Path" points="8 9.6000004 0.3 1.9000001 1.7 0.4000001 8 6.6999998 14.3000002 0.4000001 15.6999998 1.9000001"></polygon>
            </g>
            <g id="Group" transform="translate(16.000000, 0.000000)" fill="#6C7079">
                <path d="M15,3 L8.3999996,3 L5.6999998,0.3 C5.5,0.1 5.3000002,0 5,0 L1,0 C0.4,0 0,0.4 0,1 L0,15 C0,15.6000004 0.4,16 1,16 L15,16 C15.6000004,16 16,15.6000004 16,15 L16,4 C16,3.4000001 15.6000004,3 15,3 Z" id="Path"></path>
            </g>
            <g id="Group" transform="translate(32.000000, 0.000000)" fill="#6C7079">
                <path d="M15.8000002,7.4000001 C15.6000004,7.1999998 15.3000002,7 15,7 L4,7 C3.5999999,7 3.2,7.1999998 3.0999999,7.5999999 L0.0999999,14.6000004 C-0.1,15.1999998 0.1,16 1,16 L12,16 C12.3999996,16 12.8000002,15.8000002 12.8999996,15.3999996 L15.8999996,8.3999996 C16.1000004,8.1000004 16,7.6999998 15.8000002,7.4000001 Z" id="Path"></path>
                <path d="M1.2,6.8000002 C1.7,5.6999998 2.8,5 4,5 L13,5 L13,3 C13,2.4000001 12.6000004,2 12,2 L6.4000001,2 L4.6999998,0.3 C4.5,0.1 4.3000002,0 4,0 L1,0 C0.4,0 0,0.4 0,1 L0,9.6999998 L1.2,6.8000002 Z" id="Path"></path>
            </g>
            <g id="Group" transform="translate(48.000000, 0.000000)" fill="#6C7079" fill-rule="nonzero">
                <path d="M15,0 L1,0 C0.4,0 0,0.4 0,1 L0,15 C0,15.6000004 0.4,16 1,16 L15,16 C15.6000004,16 16,15.6000004 16,15 L16,1 C16,0.4 15.6000004,0 15,0 Z M6,4 C6.5999999,4 7,4.4000001 7,5 C7,5.5999999 6.5999999,6 6,6 C5.4000001,6 5,5.5999999 5,5 C5,4.4000001 5.4000001,4 6,4 Z M3,12 L5,8 L7,10 L10,6 L13,12 L3,12 Z" id="Shape"></path>
            </g>
        </g>
    </g>
</svg>
